X: 1
T:Dalnahasaig
M:C
L:1/8
Q:80
C:Arr. Hamish Moore
S:Strathspey
K:HP
f2e3/2d/2d/2f3/2A2|
f2e3/2f/2d3/2f/2a3/2g/2|
f2e3/2d/2d/2f3/2A3/2f/2|  !
g2e3/2f/2A3/2f/2((3efg)|
f2e3/2d/2d/2f3/2A2|
f2e3/2f/2d3/2f/2a3/2g/2|  !
f2e3/2d/2d/2f3/2A3/2f/2|
g2e3/2f/2A3/2f/2((3efg)|]
a2f3/2a/2d3/2f/2A3/2f/2|  !
a2f3/2a/2d3/2a/2((3efg)|
a2f3/2a/2d3/2f/2A3/2f/2|
g2e3/2f/2A3/2f/2((3efg)|  !
a2f3/2a/2d3/2f/2A3/2f/2|
a2f3/2a/2d3/2a/2((3efg)|
a2f3/2a/2d3/2f/2A3/2f/2|  !
g2e3/2f/2A3/2f/2((3efg)|]
